!! 00008] TT[TB
!! Eigene Aufnahme
!!!OTL: Zou ma
!!!ARE: Neimeng Xilingele
!! Ethnic Group: Menggu
!! IV, 305
!!!SCT: C0178
!!!YEM: Copyright 1995, estate of Helmut Schaffrath.
**kern
*ICvox
*Ivox
!! Mixed meters:  3/4; 4/4
*M4/4
*k[]
*C:
{8.d
16d
2d
=1
4d
8d
8dd
8dd
8ee
=2
[2ee
8ee]}
{24ee
24ee
24aa
=3
8dd
24dd
24dd
24cc
2a}
=4
{4.a
8dd
8g
16g
16e
=5
[2.dd
=6
8dd]
24dd
24dd
24gg
8dd
8cc
4r}
=7
{8c
8d
8e
4a
16a
16g
=8
8g
16g
16cc
8e
24e
24a
24e
12e
12e
12g
=9
2.d}
=10
{2e
8e
16a
16g
=11
8e
8g
8a
8dd
8ee
16aa
16gg
=12
8ee
24ee
24ee
24gg
2dd}
=13
{8dd
8cc
[2aa
=14
8aa]
24aa
24aa
24ccc
8aa
24gg
24aa
24gg
8ee
8ee
=15
[2aa
8aa]
24gg
24aa
24gg
4r}
{[2g
8g]
8a
=16
8a
8g
4.ee
24ee
24ee
24aa
=17
8ee
8dd
8dd
8cc
4r}
=18
{8g
8a
8cc
4dd
16ee
16gg
=19
8dd
8cc
2a}
==
!!!AGN: Muge
!! nicht so typisch wie das von S. 304; Saenger: Chao Lun Batou
!!    4/4 nachgetragen, da nicht angegeben (Phr.6, letzter Takt. - Druckfeh-
!!    ler???). VARIANTE. Kad.tonfolge vermutlich brauchbar. Sehr viele
!!    tremoli, sehr schoen.
!!!ONB: ESAC (Essen Associative Code) Database: CHINA
!!!AMT: irregular
!!!AIN: vox
!!!EED: Helmut Schaffrath
!!!EEV: 1.0
*-
!!!ONB: Tied note syntax fixed by Craig Sapp, 2004/05/03/
